src/images/icons/icon-wrench.svg

<?xml version="1.0" encoding="UTF-8"?>
<svg width="24px" height="24px" viewBox="0 0 24 24" version="1.1" xmlns="http://www.w3.org/2000/svg" xmlns:xlink="http://www.w3.org/1999/xlink">
    <!-- Generator: Sketch 45.1 (43504) - http://www.bohemiancoding.com/sketch -->
    <title>icon-wrench</title>
    <desc>Created with Sketch.</desc>
    <defs></defs>
    <g id="Page-1" stroke="none" stroke-width="1" fill="none" fill-rule="evenodd">
        <g id="icon-wrench" stroke="#FFFFFF">
            <path d="M21.4375,11.752 C23.4825,9.706 23.8775,6.63 22.6275,4.187 L19.3165,7.488 L16.6525,7.488 L16.6525,4.68 L19.8815,1.368 C17.4395,0.119 14.3315,0.515 12.2865,2.559 C10.2425,4.602 9.8255,7.67 11.0755,10.112 L1.2485,19.932 C0.4675,20.711 0.4615,21.977 1.2435,22.758 C2.0245,23.539 3.2885,23.539 4.0695,22.758 L13.8855,12.94 C16.3285,14.19 19.3945,13.795 21.4375,11.752 L21.4375,11.752 Z" id="Shape"></path>
        </g>
    </g>
</svg>

<svg xmlns="http://www.w3.org/2000/svg" width="24" height="24"><path fill="none" fill-rule="evenodd" stroke="#FFF" d="M21.438 11.752a6.515 6.515 0 0 0 1.19-7.565l-3.311 3.301h-2.665V4.68l3.23-3.312c-2.443-1.249-5.55-.853-7.596 1.191a6.504 6.504 0 0 0-1.21 7.553l-9.828 9.82a1.996 1.996 0 1 0 2.821 2.826l9.817-9.818a6.497 6.497 0 0 0 7.552-1.188Z"/></svg>
